!!!OTL: Das Regina coeli deutsch, auf die osterliche Zeit zu singen.
!!!ARE: Europa, Mitteleuropa, Deutschland
!!!SCT: A0595A
!!!TXL: @@DE, (@@LAT)
!!!YEM: Copyright 1995, estate of Helmut Schaffrath.
**kern	**text
*M4/1	*
*met(c|)	*
*clefC4	*
*k[b-]	*
*F:ion	*
=1	=1
!LO:TX:a:t=jon.	!
{1F	Kö-
1c	-ni-
1A	-gin
1F	der
=2	=2
*lig	*
2G	Hi-
2A/	.
*Xlig	*
1B-	-me-
0A}	-le,
=3	=3
{1r	.
1c	frew
1d	dich,
*lig	*
2.c	Ma-
4B-	.
*Xlig	*
=4	=4
1A	-ri-
0F	-a!
1r}	.
=5	=5
{1B-	den
1G	du
1A	haſt
1F	em-
=6	=6
1G	-pfangen,
2F}	.
{2G	der
1A	iſt
2F	von
2F	dem
=7	=7
1G	todt
2F	auff-
2E	-er-
1D	-ſtan-
1C}	-den.
=8	=8
{1.c	Bit-
2B-	-te
1A	Gott
1F	für
=9	=9
0B-	vns,
1A	Al-
1F	-le-
=10	=10
0G	-lu-
0F/ll}	-ja!
==	==
!!!GTL: Geistliche Volkslieder
!!!AGN: Romanze, Ballade, Lied, religioeses Lied
!! Leisentrit 1567 II fol. 24.
!!!ONB: ESAC (Essen Associative Code) Database: ALTDEU
!!!AMT: simple quadruple
!!!AIN: vox
!!!EED: Helmut Schaffrath
!!!EEV: 1.0
!!!RDF**kern: l = terminal long
!!!AMD: Ionian
!!!URL-scan: https://rosdok.uni-rostock.de/mcrviewer/recordIdentifier/rosdok_ppn738218359/iview2/phys_0777.iview2?x=-1038.517049950175&y=510.47350331768394&scale=0.35264164471254245&rotation=0&layout=singlePageLayout&logicalDiv=log_0021
!!!ENC: Anna Maria Matuszewska
!!!EEV: 2024/22/03
*-	*-
